X: 10033
T: Il CROCCIATO
Q: "Quick."
%R: march
B: W. Hamilton "Universal Tune-Book" Vol. 1 Glasgow 1844 p.3 #3
S: http://imslp.org/wiki/Hamilton's_Universal_Tune-Book_(Various)
Z: 2016 John Chambers <jc:trillian.mit.edu>
M: 2/4
L: 1/8
K: F
% - - - - - - - - - - - - - - - - - - - - - - - - -
c |\
!p!fagf | egcc | BdcB | AcFc |\
"^cres.".d.B.e.c | .f.d.g.e | afdg | dgc ::\
A |\
GA/B/ cd/e/ | fafA | GA/B/ cd/e/ | fcde |\
fagf | egcA | Bdce | f>fF :|
% - - - - - - - - - - - - - - - - - - - - - - - - -

%%sep 1 1 500
%%sep 1 1 500

